symbols/web/gpp_bad/materialsymbolsrounded/gpp_bad_grad200fill1_48px.svg

<svg xmlns="http://www.w3.org/2000/svg" height="48" width="48"><path d="m23.95 26.15 3.35 3.35q.55.6 1.375.6t1.425-.6q.55-.55.55-1.35t-.55-1.4l-3.3-3.25 3.3-3.3q.5-.5.5-1.325t-.5-1.375q-.55-.5-1.35-.5t-1.3.5l-3.35 3.35-3.35-3.35q-.6-.55-1.425-.55-.825 0-1.375.55-.6.6-.6 1.4 0 .8.6 1.35l3.3 3.3-3.3 3.3q-.55.55-.55 1.35t.55 1.3q.5.55 1.3.55t1.35-.55Zm.05 18.5q-.25 0-.45-.025t-.4-.075q-7-2.05-11.45-8.525Q7.25 29.55 7.25 21.85v-9.9q0-1.15.65-2.1.65-.95 1.75-1.4l13.1-4.9q.6-.2 1.25-.2t1.3.2l13.1 4.9q1.05.45 1.7 1.4.65.95.65 2.1v9.9q0 7.7-4.45 14.175-4.45 6.475-11.45 8.525.05-.05-.85.1Z"/></svg>

<svg xmlns="http://www.w3.org/2000/svg" height="48" width="48"><path d="M23.95 26.15 27.3 29.5Q27.85 30.1 28.675 30.1Q29.5 30.1 30.1 29.5Q30.65 28.95 30.65 28.15Q30.65 27.35 30.1 26.75L26.8 23.5L30.1 20.2Q30.6 19.7 30.6 18.875Q30.6 18.05 30.1 17.5Q29.55 17 28.75 17Q27.95 17 27.45 17.5L24.1 20.85L20.75 17.5Q20.15 16.95 19.325 16.95Q18.5 16.95 17.95 17.5Q17.35 18.1 17.35 18.9Q17.35 19.7 17.95 20.25L21.25 23.55L17.95 26.85Q17.4 27.4 17.4 28.2Q17.4 29 17.95 29.5Q18.45 30.05 19.25 30.05Q20.05 30.05 20.6 29.5ZM24 44.65Q23.75 44.65 23.55 44.625Q23.35 44.6 23.15 44.55Q16.15 42.5 11.7 36.025Q7.25 29.55 7.25 21.85V11.95Q7.25 10.8 7.9 9.85Q8.55 8.9 9.65 8.45L22.75 3.55Q23.35 3.35 24 3.35Q24.65 3.35 25.3 3.55L38.4 8.45Q39.45 8.9 40.1 9.85Q40.75 10.8 40.75 11.95V21.85Q40.75 29.55 36.3 36.025Q31.85 42.5 24.85 44.55Q24.9 44.5 24 44.65Z"/></svg>
